**kern	**kern	**dynam
*part1	*part1	*part1
*staff2	*staff1	*
*I"Piano	*	*
*clefF4	*clefG2	*
*k[]	*k[]	*
=1	=1	=1
8AA' 8E	8cn' 8e	p
8r	8r	.
8r	8r	.
(16ALL	(16aLL	.
16BJJ	16bJJ	.
=	=	=
8cL	8ccL	.
8A	8a	.
8d	8dd	.
8D#XJ) 8c	8aJ) 8cc	.
=	=	=
2E 2B	2g#X 2b	.
=	=	=
8.C#XL 8.A 8.c#X	8.eL 8.a 8.ee	.
16EK 16A 16c#	16eK 16a 16ee	.
8E 8A 8c#	8e 8a 8cc#X	.
8EJ 8A 8c#	8eJ 8a	.
=	=	=
4E 4d	4e 4g#X 4b	.
4A 4c#X	4e 4a	.
=	=	=
8.C#XL 8.E 8.A 8.c#X	(8eL	f
.	16aL	.
16EK 16A 16c#	16cc#XJJ	.
8E 8A 8c#	16ff#XLL	.
.	16ee	.
8EJ 8A 8c#	16cc#	.
.	16aJJ)	.
=	=	=
4E 4B 4d 4e	4g#X 4b 4ee 4gg#X	.
4A 4c#X 4e	4a 4cc#X 4ee 4aa	.
=:|!	=:|!	=:|!
*-	*-	*-
!!!system-decoration: {(s1,s2)}
